X:0
T:The Dhu Hill
S:Kerr's Merry Melodies
G:jig, sometimes played slowly
M:6/8
L:1/8
Q:3/8=104
K:F#Phr
F2A cdc|BAG Bcd|c2c fed|   cBc F3 :|
cBc ABc|dcd B3 |cBc f2f|   cAF F3 :|
f2d dcB|ABG FGA|B2B cBc|[1 d3  A2A:|\
                        [2 dcB ABG|]

Transpositions of Phrygian mode scales:

